!!!COA:	Josquin des Prez
!!!CDT:	~1450-1521/08/27
!!!COA2: La Rue, Pierre de
!!!CDT2: ~1452///-1518/11/20/
!!!COA3: Agricola
!!!OTL@@LAT: Magnificat Quarti toni
!!!AGN:	Motet
!!!SCT:	NJE 20.3
!!!SCA:	New Josquin Edition 20.3
!!!voices:	4
**kern	**kern	**kern	**kern
*staff4	*staff3	*staff2	*staff1
*Ivox	*Ivox	*Ivox	*Ivox
*I"Bassus	*I"Tenor	*I"Altus	*I"Superius
*I'B	*I'T	*I'A	*I'S
*clefF4	*clefGv2	*clefGv2	*clefG2
*k[]	*k[]	*k[]	*k[]
*M2/1	*M2/1	*M2/1	*M2/1
*met(C|)	*met(C|)	*met(C|)	*met(C|)
!!section: Anima mea dominum
!!!OMD: Anima mea dominum
=1-	=1-	=1-	=1-
0r	1A	1e	[0a
.	2D/	2d\	.
.	[2A/	[2f\	.
=2	=2	=2	=2
0r	2A/]	4f\]	1a]
.	.	4e\	.
.	2G/	1e	.
.	1F	.	1a
.	.	2d\	.
=3	=3	=3	=3
0r	[0E	2.e\	0g
.	.	4d\	.
.	.	2B\	.
.	.	[2c\	.
=4	=4	=4	=4
[0AA	0E]	2c\]	0a
.	.	1A	.
.	.	[2c\	.
=5	=5	=5	=5
1AA]	0r	4c\]	0cc
.	.	4B\	.
.	.	4A/	.
.	.	4G/	.
1AA	.	2.F/	.
.	.	4E/	.
=6	=6	=6	=6
0GG	0r	0G	0b
=7	=7	=7	=7
0AA	[0A	1E	1a
.	.	[1e	2r
.	.	.	[2a/
=8	=8	=8	=8
1C	1A]	1e]	2a/]
.	.	.	2g/
1D	1A	1d	1f
=9	=9	=9	=9
1E	0G	1B	1e
1C	.	[1c	2r
.	.	.	[2cc\
=10	=10	=10	=10
0F	0A	1c]	4cc\]
.	.	.	4b\
.	.	.	1a
.	.	1A	.
.	.	.	4g/
.	.	.	4f/
=11	=11	=11	=11
0C	0c	1.G	2.e/
.	.	.	4f/
.	.	.	2g/
.	.	2E/	[2a/
=12	=12	=12	=12
1D	0B	1F	2a/]
.	.	.	4g#i/
.	.	.	4f#i/
1E	.	[1E	1g#i
=13	=13	=13	=13
1AA	0A	1E]	1a
1D	.	1F	2r
.	.	.	2f/
=14	=14	=14	=14
1E	1G	1C	2g/
.	.	.	2e/
1D	1A	1F	4f/
.	.	.	4e/
.	.	.	[2f/
=15	=15	=15	=15
0A	0F	0D	4f/]
.	.	.	4e/
.	.	.	4d/
.	.	.	4c/
.	.	.	1d
=16	=16	=16	=16
0AA	[0El	1A	1e
.	.	1c	2r
.	.	.	[2e/
=17	=17	=17	=17
0r	0E_	1B	2e/]
.	.	.	4d/
.	.	.	4c/
.	.	2.G/	1B
.	.	4A/	.
=18	=18	=18	=18
0r	0E_	2B\	2.G/
.	.	2c\	.
.	.	.	4A/
.	.	2B\	2B/
.	.	[2e\	2c/
=19	=19	=19	=19
0r	0E_	2e\]	2B/
.	.	4d\	2.e/
.	.	4c\	.
.	.	2B\	.
.	.	.	4d/
.	.	[2c\	[2e/
=20	=20	=20	=20
0r	0E_	2c\]	2e/]
.	.	4B\	4d/
.	.	4A/	4c/
.	.	1G#i	1B
=21	=21	=21	=21
0AAl	0E]	0Al	0Al
!!LO:LB:i:g=z
=22||	=22||	=22||	=22||
*>B	*>B	*>B	*>B
*k[]	*k[]	*k[]	*k[]
*M2/1	*M2/1	*M2/1	*M2/1
*met(C|)	*met(C|)	*met(C|)	*met(C|)
!!section: Ex exultavit
!!!OMD: Ex exultavit
0A	0r	2r	0a
.	.	2A/	.
.	.	2c\	.
.	.	2d\	.
=23	=23	=23	=23
[0E	2r	1e	0g
.	2B\	.	.
.	2c\	2r	.
.	2d\	2B\	.
=24	=24	=24	=24
0E]	2e\	2c\	0g
.	4d\	2d\	.
.	4c\	.	.
.	1B	1e	.
=25	=25	=25	=25
0r	2.A/	1.e	0a
.	4B\	.	.
.	2c\	.	.
.	[2d\	[2f\	.
=26	=26	=26	=26
0r	2d\]	2f\]	1a
.	2f\	4e\	.
.	.	4d\	.
.	2e\	2c\	1a
.	2d\	[2f\	.
=27	=27	=27	=27
0A	2c\	4f\]	0a
.	.	4e\	.
.	1e	1g	.
.	4d\	2f#i\	.
.	4c\	.	.
=28	=28	=28	=28
0G	2.B\	1g	1r
.	4c\	.	.
.	1d	1r	1b
=29	=29	=29	=29
0G	0r	0d	2g/
.	.	.	2.b\
.	.	.	4a/
.	.	.	4g/
.	.	.	4f/
=30	=30	=30	=30
0A	0r	0c	2.e/
.	.	.	4f/
.	.	.	2e/
.	.	.	[2a/
=31	=31	=31	=31
1A	0r	0c	2a/]
.	.	.	4g/
.	.	.	4f/
1A	.	.	1e
=32	=32	=32	=32
0D	0A	0d	1d
.	.	.	2r
.	.	.	2a/
=33	=33	=33	=33
0r	0G	1d	1b
.	.	1d	2cc\
.	.	.	[2dd\
=34	=34	=34	=34
0r	0G	0d	2dd\]
.	.	.	1cc
.	.	.	2b\
=35	=35	=35	=35
1.F	0A	0c	2.cc\
.	.	.	4b\
.	.	.	2a/
4E\	.	.	4g/
4D\	.	.	4f/
=36	=36	=36	=36
2C/	1A	0r	2e/
2.D\	.	.	4f/
.	.	.	4e/
.	1A	.	4f/
4E\	.	.	4g/
[2F\	.	.	[2a/
=37	=37	=37	=37
4F\]	0A	1r	2a/]
4E\	.	.	.
2C/	.	.	1g
1D	.	1d	.
.	.	.	2f#i/
=38	=38	=38	=38
0E	0G	1B	1.g
.	.	1c	.
.	.	.	4f/
.	.	.	4e/
=39	=39	=39	=39
1D	1A	1d	2f/
.	.	.	2d/
1r	2r	2.D/	2.f/
.	[2D/	.	.
.	.	4E/	4g/
=40	=40	=40	=40
0r	4D/]	4F/	1.a
.	4E/	4G/	.
.	4F/	4A/	.
.	4G/	4B\	.
.	4A/	4c\	.
.	4B\	4d\	.
.	[2c\	[2e\	[2g/
=41	=41	=41	=41
0r	2c\]	2e\]	2g/]
.	2d\	1d	2f/
.	1A	.	1e
.	.	2c#i\	.
=42	=42	=42	=42
2r	1r	0d	1d
2.D\	.	.	.
.	2.D/	.	1r
4E\	.	.	.
4F\	.	.	.
4G\	4E/	.	.
=43	=43	=43	=43
1A	4F/	0r	1r
.	4G/	.	.
.	4A/	.	.
.	4B\	.	.
2r	4c\	.	2.A/
.	4d\	.	.
[2AA/	[2e\	.	.
.	.	.	4B/
=44	=44	=44	=44
4AA/]	1.e]	0r	4c/
4BB/	.	.	4d/
4C/	.	.	4e/
4D\	.	.	4f/
4E\	.	.	4g/
4F\	.	.	4a/
[2G\	[2d\	.	[2b\
=45	=45	=45	=45
2G\]	2d\]	2r	2b\]
2A\	2c\	2.e\	1a
1E	1B	.	.
.	.	4d\	.
.	.	4c\	2g#i/
.	.	4B\	.
=46	=46	=46	=46
0AA	1A	0c	1a
.	1r	.	1cc
=47	=47	=47	=47
0E	0G	0r	2.b\
.	.	.	4cc\
.	.	.	2b\
.	.	.	[2g/
=48	=48	=48	=48
0r	0A	0c	2g/]
.	.	.	4f#i/
.	.	.	4e/
.	.	.	1f#i
=49	=49	=49	=49
1G	1B	0d	1g
2.G\	1B	.	2r
.	.	.	[2g/
4F\	.	.	.
=50	=50	=50	=50
2.E\	0B	1e	4g/]
.	.	.	4e/
.	.	.	1a
4D\	.	.	.
1E	.	1e	.
.	.	.	2g/
=51	=51	=51	=51
0AA	0A	0e	2a/
.	.	.	1cc
.	.	.	4b\
.	.	.	4a/
=52	=52	=52	=52
0r	0B	0d	2g/
.	.	.	2.b\
.	.	.	4cc\
.	.	.	[2dd\
=53	=53	=53	=53
0r	0A	0e	2dd\]
.	.	.	4cc#i\
.	.	.	4b\
.	.	.	1cc#i
=54	=54	=54	=54
2.D\	0r	0d	1dd
4E\	.	.	.
2F\	.	.	1r
[2G\	.	.	.
=55	=55	=55	=55
4G\]	0r	0r	2.d/
4A\	.	.	.
1B-i	.	.	.
.	.	.	4e/
.	.	.	2.f/
4A\	.	.	.
4G\	.	.	4g/
=56	=56	=56	=56
2F\	0r	[0d	2a/
1G	.	.	1b-i
4F\	.	.	4a/
4E\	.	.	4g/
=57	=57	=57	=57
2D\	0r	1d]	2f/
2.G\	.	.	2.b-i\
.	.	1d	.
4F\	.	.	4a/
4G\	.	.	4b-i\
4F\	.	.	4a/
=58	=58	=58	=58
2G\	0r	0d	2b-i\
2F\	.	.	2a/
2G\	.	.	2b-i\
[2F\	.	.	[2a/
=59	=59	=59	=59
2F\]	[0A	0r	2a/]
4E\	.	.	4g/
4D\	.	.	4f/
2C/	.	.	2e/
[2D\	.	.	[2f/
=60	=60	=60	=60
2D\]	1A]	0r	2f/]
4C/	.	.	4e/
4BB/	.	.	4d/
2AA/	1A	.	2c/
[2D\	.	.	2f/
=61	=61	=61	=61
2D\]	0A	0r	1e
2C#i/	.	.	.
[1D	.	.	1d
=62	=62	=62	=62
1D]	0r	0d	2.f/
.	.	.	4g/
1r	.	.	4a/
.	.	.	4b-i\
.	.	.	[2a/
=63	=63	=63	=63
0r	0A	0c	2a/]
.	.	.	1g
.	.	.	2f#i/
=64	=64	=64	=64
1r	0G	0d	1g
1G	.	.	2b\
.	.	.	[2dd\
=65	=65	=65	=65
1D	0A	[0f	2dd\]
.	.	.	4cc\
.	.	.	4b\
[1F	.	.	2a/
.	.	.	[2cc\
=66	=66	=66	=66
0F]	[0c	0f]	2cc\]
.	.	.	2b\
.	.	.	1a
=67	=67	=67	=67
0C	0c]	0e	1g
.	.	.	2e/
.	.	.	[2a/
=68	=68	=68	=68
0r	0B	0d	2a/]
.	.	.	4g/
.	.	.	4f/
.	.	.	4g/
.	.	.	4f/
.	.	.	4e/
.	.	.	4d/
=69	=69	=69	=69
0r	0A	1e	2c/
.	.	.	1cc
.	.	1c	.
.	.	.	4b\
.	.	.	4a/
=70	=70	=70	=70
1r	1G	1d	2b\
.	.	.	2dd\
1G	1E	1e	2cc\
.	.	.	2b\
=71	=71	=71	=71
1A	0F	1c	2a/
.	.	.	2cc\
1D	.	1d	2b\
.	.	.	[2a/
=72	=72	=72	=72
0E	[0El	0B	2a/]
.	.	.	4g#i/
.	.	.	4f#i/
.	.	.	1g#i
=73	=73	=73	=73
0AAl	0E]	0Al	0al
!!LO:LB:i:g=z
=74||	=74||	=74||	=74||
*>C	*>C	*>C	*>C
*k[]	*k[]	*k[]	*k[]
*M2/1	*M2/1	*M2/1	*M2/1
*met(C|)	*met(C|)	*met(C|)	*met(C|)
!!section: Quia fecit
!!!OMD: Quia fecit
0r	0r	2.A/	1.a
.	.	4B\	.
.	.	4c\	.
.	.	4d\	.
.	.	[2e\	[2g/
=75	=75	=75	=75
0r	0r	2e\]	2g/]
.	.	1d	2f/
.	.	.	1e
.	.	2c#i\	.
=76	=76	=76	=76
0r	2.D/	1d	1d
.	4E/	.	.
.	4F/	2D/	1r
.	4G/	.	.
.	[2A/	[2F/	.
=77	=77	=77	=77
0AA	2A/]	2F/]	0r
.	1G	4E/	.
.	.	4D/	.
.	.	1C	.
.	2F#i/	.	.
=78	=78	=78	=78
0GG	1G	1.D	2.g/
.	.	.	4a/
.	4G/	.	4b\
.	4A/	.	4cc\
.	4B\	[2G/	[2dd\
.	4c\	.	.
=79	=79	=79	=79
0GG	2d\	1G]	2dd\]
.	2e\	.	1cc
.	1d	1G	.
.	.	.	2b\
=80	=80	=80	=80
0AA	1.c	2E/	2.cc\
.	.	1F	.
.	.	.	4b\
.	.	.	2a/
.	2B\	4E/	2g/
.	.	4D/	.
=81	=81	=81	=81
1AA	2A/	2C/	2f/
.	4G/	2.c\	4e/
.	4F/	.	4d/
1AA	2.E/	.	2.c/
.	.	4B\	.
.	.	2A/	.
.	4D/	.	4d/
=82	=82	=82	=82
0r	2E/	2G/	2c/
.	1F	1A	1d
.	2G/	2B\	2e/
=83	=83	=83	=83
0AA	0E	2.A/	1c
.	.	4B\	.
.	.	2c\	1r
.	.	[2A/	.
=84	=84	=84	=84
0AA	0r	2A/]	2.a/
.	.	4G/	.
.	.	4F/	4b\
.	.	2E/	2cc\
.	.	[2F/	[2a/
=85	=85	=85	=85
0AA	2.A/	2F/]	2a/]
.	.	4E/	4g/
.	4B\	4D/	4f/
.	2c\	2C/	2e/
.	[2A/	[2c\	[2f/
=86	=86	=86	=86
0AA	2A/]	2c\]	2f/]
.	4G/	4B\	4e/
.	4F/	4A/	4d/
.	2.E/	1A	2.c/
.	4F/	.	4d/
=87	=87	=87	=87
0GG	1G	1.D	1B
.	2.B\	.	2r
.	.	[2G/	2e/
.	4A/	.	.
=88	=88	=88	=88
0GG	4B\	2G/]	2d/
.	4A/	.	.
.	1.B	2D/	2.g/
.	.	1G	.
.	.	.	4f/
.	.	.	4e/
.	.	.	4d/
=89	=89	=89	=89
0AA	2.A/	2E/	2c/
.	.	2F/	1d
.	4G/	.	.
.	1A	1E	.
.	.	.	2c#i/
=90	=90	=90	=90
0BB	2r	0D	1d
.	2d\	.	.
.	2B\	.	1r
.	[2d\	.	.
=91	=91	=91	=91
0BB	4d\]	2r	0r
.	4c\	.	.
.	4B\	1d	.
.	4A/	.	.
.	1G	.	.
.	.	4c\	.
.	.	4B\	.
=92	=92	=92	=92
0AA	0A	4c\	0r
.	.	4B\	.
.	.	4A/	.
.	.	4G/	.
.	.	4F/	.
.	.	4E/	.
.	.	[2A/	.
=93	=93	=93	=93
0BB	1r	2A/]	2r
.	.	4G#i/	1dd
.	.	4F#i/	.
.	1D	1G#i	.
.	.	.	4cc\
.	.	.	4b\
=94	=94	=94	=94
0AA	1E	1A	4cc\
.	.	.	4b\
.	.	.	4a/
.	.	.	4g/
.	1A	1c	4f/
.	.	.	4e/
.	.	.	[2a/
=95	=95	=95	=95
0r	0E	0B	2a/]
.	.	.	4g#i/
.	.	.	4f#i/
.	.	.	1g#i
=96	=96	=96	=96
0r	2.F/	1A	1a
.	4E/	.	.
.	2C/	2r	2r
.	[2c\	[2e\	[2a/
=97	=97	=97	=97
0r	2c\]	2e\]	2a/]
.	4B\	4d\	4g/
.	4A/	4c\	4f/
.	4B\	4d\	4g/
.	4A/	4c\	4f/
.	4G/	4B\	4e/
.	4F/	4A/	4d/
=98	=98	=98	=98
0r	2E/	1G	4c/
.	.	.	4B/
.	2G/	.	1e
.	1F	1A	.
.	.	.	2d/
=99	=99	=99	=99
0AA	0E	1c	1e
.	.	2A/	2r
.	.	[2c\	[2a/
=100	=100	=100	=100
0AA	0r	4c\]	4a/]
.	.	4B\	4g/
.	.	4A/	4f/
.	.	4G/	4e/
.	.	1A	1f
=101	=101	=101	=101
0GG	0r	2.B\	2.g/
.	.	4A/	4f/
.	.	2G/	2e/
.	.	2F/	2d/
=102	=102	=102	=102
0AA	0A	1E	2c/
.	.	.	2.cc\
.	.	1F	.
.	.	.	4b\
.	.	.	[2a/
=103	=103	=103	=103
0C	0A	1E	2a/]
.	.	.	4g/
.	.	.	4f/
.	.	2r	1e
.	.	[2E/	.
=104	=104	=104	=104
0BB	0G	2E/]	2r
.	.	4D/	2.g/
.	.	4C/	.
.	.	1D	.
.	.	.	8f/L
.	.	.	8e/J
.	.	.	2d/
=105	=105	=105	=105
0AA	0A	0E	1c
.	.	.	2r
.	.	.	[2e/
=106	=106	=106	=106
0r	0c	2.C/	2e/]
.	.	.	1g
.	.	4D/	.
.	.	2E/	.
.	.	2F/	4f/
.	.	.	4e/
=107	=107	=107	=107
1r	1B	1G	1d
2.AA/	[1A	2E/	1c
.	.	[2e\	.
4BB/	.	.	.
=108	=108	=108	=108
2C/	1A]	2e\]	2r
2D\	.	4d\	2f/
.	.	4c\	.
2E\	1G	1B	2g/
4F\	.	.	[2e/
4G\	.	.	.
=109	=109	=109	=109
1A	0F	2c\	2e/]
.	.	1.A	4d/
.	.	.	4c/
1D	.	.	1d
=110	=110	=110	=110
1.G	[0El	1.B	[0el
2C/	.	[2G/	.
=111	=111	=111	=111
2.C/	0E_	2G/]	0e_
.	.	2c\	.
4BB/	.	.	.
2GG/	.	2B\	.
[2AA/	.	[2c\	.
=112	=112	=112	=112
2AA/]	0E_	4c\]	0e_
.	.	4A/	.
2GG/	.	2B\	.
1AA	.	1c	.
=113	=113	=113	=113
*^	*	*	*
0EE\l	0E/l	0E]	0Bl	0e]
*v	*v	*	*	*
!!LO:LB:i:g=z
=114||	=114||	=114||	=114||
*>D	*>D	*>D	*>D
*k[]	*k[]	*k[]	*k[]
*M2/1	*M2/1	*M2/1	*M2/1
*met(C|)	*met(C|)	*met(C|)	*met(C|)
!!section: Fecit potentiam
!!!OMD: Fecit potentiam
1.AA	0A	0r	0r
2BB/	.	.	.
=115	=115	=115	=115
2.C/	[0G	0r	0r
4D\	.	.	.
2BB/	.	.	.
[2E\	.	.	.
=116	=116	=116	=116
2E\]	0G]	0r	0r
4D\	.	.	.
4C/	.	.	.
1BB	.	.	.
=117	=117	=117	=117
1AA	1A	0e	0r
1A	1c	.	.
=118	=118	=118	=118
1D	2B\	0d	0r
.	2A/	.	.
1G	1B	.	.
=119	=119	=119	=119
2.F\	2r	0d	0a
.	1A	.	.
4E\	.	.	.
1F	.	.	.
.	4G/	.	.
.	4A/	.	.
=120	=120	=120	=120
[0E	2.B\	0e	0g
.	4c\	.	.
.	2B\	.	.
.	[2c\	.	.
=121	=121	=121	=121
0E]	2c\]	0e	0g
.	4B\	.	.
.	4A/	.	.
.	1B	.	.
=122	=122	=122	=122
0AA	1A	1e	0a
.	2r	1e	.
.	2c\	.	.
=123	=123	=123	=123
0r	2A/	0e	0a
.	2.c\	.	.
.	4B\	.	.
.	4A/	.	.
.	4G/	.	.
=124	=124	=124	=124
1r	1F	[0f	1a
2r	2.F/	.	1a
2A\	.	.	.
.	4G/	.	.
=125	=125	=125	=125
2F\	2A/	1f]	0a
2.A\	2F/	.	.
.	2c\	1f	.
4G\	.	.	.
4F\	2A/	.	.
4E\	.	.	.
=126	=126	=126	=126
1D	1d	1f	0r
2r	1c	1e	.
[2A\	.	.	.
=127	=127	=127	=127
2A\]	2r	2.c\	0r
2F\	2A/	.	.
.	.	4d\	.
2G\	2B\	2e\	.
[2A\	[2c\	[2f\	.
=128	=128	=128	=128
4A\]	4c\]	2f\]	0a
4G\	4B\	.	.
4F\	4A/	1e	.
4E\	4G/	.	.
1F	1A	.	.
.	.	2d\	.
=129	=129	=129	=129
[0E	0B	1.e	0g
.	.	2d\	.
=130	=130	=130	=130
1E]	1G	1c	0g
2D\	4G/	2B\	.
.	4F/	.	.
[2C/	4E/	4c\	.
.	4D/	4B\	.
=131	=131	=131	=131
2C/]	2E/	4A/	0a
.	.	4G/	.
2BB/	1D	1G	.
1AA	.	.	.
.	2C/	2F#i/	.
=132	=132	=132	=132
[0GG	0D	2G/	[0b
.	.	2d\	.
.	.	2B\	.
.	.	[2d\	.
=133	=133	=133	=133
0GG]	2r	4d\]	1b]
.	.	4c\	.
.	2d\	4B\	.
.	.	4A/	.
.	2B\	1G	1b
.	[2d\	.	.
=134	=134	=134	=134
0GG	4d\]	2r	0b
.	4c\	.	.
.	4B\	1d	.
.	4A/	.	.
.	2.G/	.	.
.	.	4c\	.
.	4F/	4B\	.
=135	=135	=135	=135
0AA	1.E	1c	0a
.	.	2B\	.
.	2F/	[2A/	.
=136	=136	=136	=136
0r	1D	2A/]	0b
.	.	4G/	.
.	.	4F/	.
.	[1E	1G	.
=137	=137	=137	=137
0AA	2E/]	2A/	0a
.	2C/	1c	.
.	2.E/	.	.
.	.	4B\	.
.	4F/	4A/	.
=138	=138	=138	=138
1GG	2G/	2.B\	0r
.	1.B	.	.
.	.	4c\	.
2.BB/	.	1d	.
4C/	.	.	.
=139	=139	=139	=139
2.D\	0A	2r	0r
.	.	2d\	.
4E\	.	.	.
1F	.	2c\	.
.	.	[2d\	.
=140	=140	=140	=140
1D	1r	2d\]	0a
.	.	4c\	.
.	.	4B\	.
1r	2r	2A/	.
.	2d\	2f\	.
=141	=141	=141	=141
0r	2c\	2e\	0a
.	1d	1f	.
.	4c\	4e\	.
.	4B\	4d\	.
=142	=142	=142	=142
2r	2.A/	2e\	[0a
2D\	.	2r	.
.	4G/	.	.
2C/	2E/	1r	.
[2D\	[2F/	.	.
=143	=143	=143	=143
2D\]	2F/]	2r	0a]
2BB/	4E/	2d\	.
.	4D/	.	.
1AA	2.E/	2c\	.
.	.	2A/	.
.	4F/	.	.
=144	=144	=144	=144
0GG	1G	2.B\	0r
.	.	4c\	.
.	2.D/	1d	.
.	4E/	.	.
=145	=145	=145	=145
0r	2.F/	2.A/	0a
.	4G/	4B\	.
.	2A/	2c\	.
.	2B\	2d\	.
=146	=146	=146	=146
0r	2c\	2e\	0a
.	1A	1f	.
.	2G/	[2e\	.
=147	=147	=147	=147
1r	1F	2e\]	0a
.	.	2d\	.
2.AA/	[1E	1e	.
4BB/	.	.	.
=148	=148	=148	=148
2C/	2E/]	0r	0r
2D\	2F/	.	.
2E\	2G/	.	.
2F\	2A/	.	.
=149	=149	=149	=149
2D\	2B\	0r	0r
1E	1c	.	.
4D\	4B\	.	.
4C/	4A/	.	.
=150	=150	=150	=150
2BB/	2G/	1r	0r
2AA/	1A	.	.
1BB	.	1d	.
.	2G#i/	.	.
=151	=151	=151	=151
1AA	2.A/	2.c\	0a
.	4B\	4d\	.
1r	4c\	4e\	.
.	4d\	4f\	.
.	[2c\	[2e\	.
=152	=152	=152	=152
0r	2c\]	2e\]	0g
.	4B\	4d\	.
.	4A/	4c\	.
.	1B	1d	.
=153	=153	=153	=153
1r	1A	0e	0a
[1A	2r	.	.
.	[2c\	.	.
=154	=154	=154	=154
0A]	2c\]	1r	0cc
.	2d\	.	.
.	2e\	2r	.
.	[2f\	2c\	.
=155	=155	=155	=155
1G	2f\]	2d\	1b
.	2e\	2B\	.
[1F	1f	1c	[1a
=156	=156	=156	=156
1F]	2r	2A/	1a]
.	2F/	2.d\	.
1E	1G	.	1g
.	.	4G/	.
.	.	[2c\	.
=157	=157	=157	=157
0D	1A	2c\]	0f
.	.	4B\	.
.	.	4A/	.
.	1F	1B	.
=158	=158	=158	=158
0C	1G	0c	[0el
.	2.E/	.	.
.	4F/	.	.
=159	=159	=159	=159
1.E	2G/	1B	0e_
.	2A/	.	.
.	2B\	2G/	.
[2AA/	[2c\	2A/	.
=160	=160	=160	=160
4AA/]	4c\]	1c	0e_
4BB/	4B\	.	.
4C/	1A	.	.
4D\	.	.	.
1E	.	1B	.
.	2G#i/	.	.
=161	=161	=161	=161
0AAl	0Al	0Al	0e]
!!LO:LB:i:g=z
=162||	=162||	=162||	=162||
*>E	*>E	*>E	*>E
*k[]	*k[]	*k[]	*k[]
*M2/1	*M2/1	*M2/1	*M2/1
*met(C|)	*met(C|)	*met(C|)	*met(C|)
!!section: Esurientes implevit
!!!OMD: Esurientes implevit
0r	[0A	0r	0a
=163	=163	=163	=163
0r	1A]	0r	1cc
.	2d\	.	2b\
.	2c\	.	[2a/
=164	=164	=164	=164
0r	1d	1r	2a/]
.	.	.	4g/
.	.	.	4f/
.	1c	[1A	1e
=165	=165	=165	=165
0AA	0r	1A]	0r
.	.	1c	.
=166	=166	=166	=166
2D\	0r	2B\	0r
2C/	.	1A	.
1D	.	.	.
.	.	4G/	.
.	.	4F/	.
=167	=167	=167	=167
1C	2r	4E/	0r
.	.	4F/	.
.	2E/	4G/	.
.	.	4A/	.
2D\	2F/	2B\	.
2AA/	[2E/	[2c\	.
=168	=168	=168	=168
2C/	2E/]	4c\]	2r
.	.	4B\	.
2D\	2F/	1A	2a/
1BB	1D	.	1dd
.	.	2G#i/	.
=169	=169	=169	=169
1AA	1E	1A	2cc\
.	.	.	1a
1D	4F/	2r	.
.	4G/	.	.
.	4A/	2F/	4g/
.	4B\	.	4f/
=170	=170	=170	=170
1C	4c\	2G/	4e/
.	4d\	.	4f/
.	1e	2c\	4g/
.	.	.	4a/
2.G\	.	1B	4b\
.	.	.	4cc\
.	2d\	.	[2b\
4F\	.	.	.
=171	=171	=171	=171
2G\	2e\	2r	2b\]
2A\	2c\	2.e\	1a
1E	1B	.	.
.	.	4d\	.
.	.	2e\	2g#i/
=172	=172	=172	=172
1F	1A	2.c\	1a
.	.	4d\	.
1C	1c	4e\	[1g
.	.	4f\	.
.	.	[2e\	.
=173	=173	=173	=173
4G\	1B	2e\]	0g]
4F\	.	.	.
4E\	.	1d	.
4D\	.	.	.
1E	1G	.	.
.	.	2c#i\	.
=174	=174	=174	=174
[0D	1A	1d	[0f
.	1r	2A/	.
.	.	[2d\	.
=175	=175	=175	=175
0D]	0r	2d\]	0f]
.	.	4c\	.
.	.	4B\	.
.	.	1A	.
=176	=176	=176	=176
1D	[0A	0r	1f
2AA/	.	.	2e/
[2D\	.	.	[2f/
=177	=177	=177	=177
2D\]	0A]	1r	2f/]
4C/	.	.	4e/
4BB/	.	.	4d/
1AA	.	2r	2.c/
.	.	[2c\	.
.	.	.	4d/
=178	=178	=178	=178
2C/	1G	2c\]	2e/
2GG/	.	1B	1d
2BB/	2F/	.	.
2C/	2E/	2A/	[2c/
=179	=179	=179	=179
1GG	1D	0G	2c/]
.	.	.	2B/
[1C	4C/	.	1c
.	4D/	.	.
.	4E/	.	.
.	4F/	.	.
=180	=180	=180	=180
1C]	2.G/	1E	0r
.	4A/	.	.
2D\	2B\	2F/	.
[2C/	4c\	2G/	.
.	4B\	.	.
=181	=181	=181	=181
2C/]	4A/	1E	0r
.	4G/	.	.
2E\	1c	.	.
1D	.	1F	.
.	2B\	.	.
=182	=182	=182	=182
0C	0c	[0G	2r
.	.	.	2c/
.	.	.	2e/
.	.	.	2f/
=183	=183	=183	=183
1C	1e	0G_	2.g/
.	.	.	4a/
[1GG	1d	.	4b\
.	.	.	4cc\
.	.	.	[2dd\
=184	=184	=184	=184
2GG/]	2B\	0G]	2dd\]
2C/	2c\	.	1cc
1GG	1d	.	.
.	.	.	2b\
=185	=185	=185	=185
1C	0c	1G	0cc
2r	.	2.C/	.
[2C/	.	.	.
.	.	4D/	.
=186	=186	=186	=186
2C/]	0r	2.E/	0r
2AA/	.	.	.
.	.	4F/	.
2BB/	.	2G/	.
2C/	.	2A/	.
=187	=187	=187	=187
2D\	0r	2B\	0r
1E	.	1c	.
4D\	.	4B\	.
4C/	.	4A/	.
=188	=188	=188	=188
1BB	2r	1G	2r
.	2B\	.	2g/
1r	2A/	2r	2a/
.	[2e\	2E/	[2cc\
=189	=189	=189	=189
0r	4e\]	2G/	4cc\]
.	4d\	.	4b\
.	2c\	2A/	1a
.	1B	1E	.
.	.	.	2g#i/
=190	=190	=190	=190
0r	[0A	[0F	1.a
.	.	.	2g/
=191	=191	=191	=191
0r	0A_	0F]	2f/
.	.	.	4e/
.	.	.	4d/
.	.	.	2c/
.	.	.	[2f/
=192	=192	=192	=192
0r	0A]	2D/	2f/]
.	.	2E/	1e
.	.	1F	.
.	.	.	2d/
=193	=193	=193	=193
1r	[0B	1E	0e
1E	.	1G	.
=194	=194	=194	=194
2D\	1B]	2F/	0r
1E	.	1G	.
.	1c	.	.
2C/	.	2E/	.
=195	=195	=195	=195
2D\	2B\	2F/	0r
2AA/	1A	1E	.
1BB	.	.	.
.	2G#i/	2D/	.
=196	=196	=196	=196
0AA	1A	0E	1r
.	1r	.	1a
=197	=197	=197	=197
1r	1A	0r	2a/
.	.	.	2a/
1AA	2A/	.	1a
.	2A/	.	.
=198	=198	=198	=198
2AA/	1A	1E	1r
2AA/	.	.	.
1AA	1r	2E/	1a
.	.	2E/	.
=199	=199	=199	=199
1r	0r	1E	1g
[1AA	.	[1e	1a
=200	=200	=200	=200
1AA]	1r	2e\]	1.cc
.	.	2.f\	.
1r	1A	.	.
.	.	4e\	.
.	.	2c\	4b\
.	.	.	4a/
=201	=201	=201	=201
0r	1G	1d	1b
.	1A	1c	2.cc\
.	.	.	4b\
=202	=202	=202	=202
0r	1c	1e	4a/
.	.	.	4g/
.	.	.	2a/
.	2B\	2d\	2g/
.	[2A/	[2c\	[2f/
=203	=203	=203	=203
1r	2A/]	2c\]	2f/]
.	2G/	1B	1e
1D	1F	.	.
.	.	2A/	2d/
=204	=204	=204	=204
1.G	[0El	[0Bl	[0el
2E\	.	.	.
=205	=205	=205	=205
0El	0E]	0B]	0e]
!!LO:LB:i:g=z
=206||	=206||	=206||	=206||
*>F	*>F	*>F	*>F
*k[]	*k[]	*k[]	*k[]
*M2/1	*M2/1	*M2/1	*M2/1
*met(C|)	*met(C|)	*met(C|)	*met(C|)
!!section: Sicut locutus est
!!!OMD: Sicut locutus est
0r	0A	0r	1.a
.	.	.	2g/
=207	=207	=207	=207
0r	1d	0r	1f
.	1c	.	2e/
.	.	.	[2a/
=208	=208	=208	=208
0r	1d	0r	2a/]
.	.	.	4g/
.	.	.	4f/
.	1B	.	4g/
.	.	.	4f/
.	.	.	4e/
.	.	.	4d/
=209	=209	=209	=209
0r	2r	[0A	1c
.	2A/	.	.
.	1c	.	1r
=210	=210	=210	=210
0r	2d\	0A]	2r
.	1e	.	2A/
.	.	.	1c
.	4d\	.	.
.	4c\	.	.
=211	=211	=211	=211
0r	2.B\	[0G	2d/
.	.	.	1e
.	4A/	.	.
.	1B	.	.
.	.	.	4d/
.	.	.	4c/
=212	=212	=212	=212
0r	0r	0G]	2.B/
.	.	.	4A/
.	.	.	1B
=213	=213	=213	=213
0r	0A	1A	0r
.	.	1c	.
=214	=214	=214	=214
[0E	0G	2B\	0r
.	.	4c\	.
.	.	4B\	.
.	.	4c\	.
.	.	4B\	.
.	.	[2e\	.
=215	=215	=215	=215
0E]	0G	2e\]	0r
.	.	1d	.
.	.	2c#i\	.
=216	=216	=216	=216
[0D	0A	1d	0r
.	.	2r	.
.	.	[2f\	.
=217	=217	=217	=217
0D]	2r	2f\]	0a
.	2A/	4e\	.
.	.	4d\	.
.	1d	1f	.
=218	=218	=218	=218
[0E	2B\	1e	0g
.	4c\	.	.
.	4B\	.	.
.	4c\	2r	.
.	4B\	.	.
.	[2e\	2B\	.
=219	=219	=219	=219
0E]	2e\]	4c\	0g
.	.	4B\	.
.	4d\	1.e	.
.	4c\	.	.
.	1B	.	.
=220	=220	=220	=220
[0AA	0A	2.c\	1.a
.	.	4d\	.
.	.	4e\	.
.	.	4f\	.
.	.	2e\	4g/
.	.	.	4f/
=221	=221	=221	=221
0AA]	2.A/	2c\	2e/
.	.	1d	2f/
.	4G/	.	.
.	[1A	.	[1e
.	.	2c\	.
=222	=222	=222	=222
0r	1A]	1c	0e]
.	2G/	2B\	.
.	[2A/	[2c\	.
=223	=223	=223	=223
0r	2A/]	2c\]	0e
.	4G/	4B\	.
.	4F/	4A/	.
.	2G/	2B\	.
.	2A/	2c\	.
=224	=224	=224	=224
0r	1E	1B	1.g
.	[1e	1E	.
.	.	.	4a/
.	.	.	4b\
=225	=225	=225	=225
0r	1e]	1A	1cc
.	[1e	2G/	2b\
.	.	[2A/	[2cc\
=226	=226	=226	=226
0r	1e]	2A/]	2cc\]
.	.	4G/	4b\
.	.	4F/	4a/
.	[1e	2G/	2b\
.	.	2A/	2cc\
=227	=227	=227	=227
0r	1e]	1E	2b\
.	.	.	2g/
.	2A/	2F/	2a/
.	[2e\	2E/	[2cc\
=228	=228	=228	=228
0r	4e\]	2G/	4cc\]
.	4d\	.	4b\
.	2c\	2A/	1a
.	1B	1E	.
.	.	.	2g#i/
=229	=229	=229	=229
0r	0A	1r	0a
.	.	[1e	.
=230	=230	=230	=230
0r	1.E	2e\]	0r
.	.	2d\	.
.	.	1c	.
.	2F/	.	.
=231	=231	=231	=231
0r	1G	1B	1.e
.	1A	1c	.
.	.	.	2f/
=232	=232	=232	=232
0r	2B\	0r	1g
.	1c	.	.
.	.	.	1a
.	[2d\	.	.
=233	=233	=233	=233
0r	2d\]	2r	2b\
.	1e	2A/	1cc
.	.	2c\	.
.	4d\	2d\	4b\
.	4c\	.	4a/
=234	=234	=234	=234
0E	1B	1e	2g/
.	.	.	2.b\
.	1G	2B\	.
.	.	.	4a/
.	.	2c\	[2g/
=235	=235	=235	=235
0D	0A	0d	2g/]
.	.	.	4f#i/
.	.	.	4e/
.	.	.	1f#i
=236	=236	=236	=236
0E	0G	2.B\	0g
.	.	4c\	.
.	.	1B	.
=237	=237	=237	=237
0AA	0E	0A	1.cc
.	.	.	2b\
=238	=238	=238	=238
0r	0r	2c\	1a
.	.	2d\	.
.	.	2e\	2g/
.	.	[2f\	[2a/
=239	=239	=239	=239
0r	2r	2f\]	2a/]
.	2G/	1e	2g/
.	2A/	.	1f
.	2B\	2d\	.
=240	=240	=240	=240
0r	1.c	4e\	[0e
.	.	4d\	.
.	.	4c\	.
.	.	4B\	.
.	.	2A/	.
.	2B\	2G/	.
=241	=241	=241	=241
0r	1A	1c	0e_
.	2G/	2B\	.
.	[2A/	[2c\	.
=242	=242	=242	=242
0r	4A/]	4c\]	0e]
.	4G/	4B\	.
.	2E/	1B	.
.	2G/	.	.
.	2A/	2c\	.
=243	=243	=243	=243
0r	1F	1A	1d
.	1E	[1B	1e
=244	=244	=244	=244
1E	1G	0B_	0r
1D	1F	.	.
=245	=245	=245	=245
1E	1G	1B]	2r
.	.	.	2g/
1AA	1E	1c	1a
=246	=246	=246	=246
0r	1E	2B\	2.g/
.	.	2e\	.
.	.	.	4a/
.	2G/	2d\	2b\
.	2A/	2c\	[2cc\
=247	=247	=247	=247
0r	1G	1d	2cc\]
.	.	.	2b\
.	[1C	2c\	1cc
.	.	2G/	.
=248	=248	=248	=248
0r	1C]	2A/	2r
.	.	4G/	2g/
.	.	4E/	.
.	2.c\	2F/	2a/
.	.	2E/	[2g/
.	4B\	.	.
=249	=249	=249	=249
2E\	2c\	2G/	4g/]
.	.	.	4e/
2D\	2d\	2A/	2f/
2E\	2B\	2G/	2.e/
2AA/	2c\	2A/	.
.	.	.	4f/
=250	=250	=250	=250
0r	2B\	2E/	2g/
.	2A/	2F/	1a
.	1B	1E	.
.	.	.	2g#i/
=251	=251	=251	=251
0AAl	0Al	0El	0al
!!LO:LB:i:g=z
=252||	=252||	=252||	=252||
*>G	*>G	*>G	*>G
*k[]	*k[]	*k[]	*k[]
*M2/1	*M2/1	*M2/1	*M2/1
*met(C|)	*met(C|)	*met(C|)	*met(C|)
!!section: Sicut erat
!!!OMD: Sicut erat
0r	0r	1.A	0a
.	.	[2c\	.
=253	=253	=253	=253
0r	0r	1c]	0g
.	.	2B\	.
.	.	[2e\	.
=254	=254	=254	=254
0E	0r	4e\]	0g
.	.	4d\	.
.	.	2B\	.
.	.	4c\	.
.	.	4B\	.
.	.	4A/	.
.	.	4G/	.
=255	=255	=255	=255
0D	0r	1F	1a
.	.	2r	2b\
.	.	[2f\	[2a/
=256	=256	=256	=256
0D	0A	4f\]	2a/]
.	.	4e\	.
.	.	4d\	1g
.	.	4c\	.
.	.	1d	.
.	.	.	2f#i/
=257	=257	=257	=257
0E	0G	1B	0g
.	.	2r	.
.	.	[2e\	.
=258	=258	=258	=258
2.E\	0G	2e\]	2r
.	.	4d\	2.g/
4D\	.	4c\	.
1E	.	2B\	.
.	.	.	4a/
.	.	[2e\	2b\
=259	=259	=259	=259
0r	0A	2e\]	1cc
.	.	2e\	.
.	.	2f\	2a/
.	.	[2e\	[2cc\
=260	=260	=260	=260
0r	2.A/	4e\]	2cc\]
.	.	4d\	.
.	.	4c\	1b
.	4G/	4B\	.
.	1A	1c	.
.	.	.	2a/
=261	=261	=261	=261
0E	0r	2.B\	1b
.	.	4c\	.
.	.	2B\	[1g
.	.	[2c\	.
=262	=262	=262	=262
0E	0r	2c\]	1g]
.	.	4B\	.
.	.	4A/	.
.	.	2G/	2.b\
.	.	[2g\	.
.	.	.	4a/
=263	=263	=263	=263
1E	0r	4g\]	2b\
.	.	4f\	.
.	.	2.e\	1cc
1E	.	.	.
.	.	4d\	.
.	.	2c\	4b\
.	.	.	4a/
=264	=264	=264	=264
0E	0r	2B\	2g/
.	.	2c\	1a
.	.	1B	.
.	.	.	2g#i/
=265	=265	=265	=265
0r	0A	1A	1a
.	.	2c\	2r
.	.	2A/	2cc\
=266	=266	=266	=266
0r	0A	2.c\	2a/
.	.	.	2.cc\
.	.	4d\	.
.	.	2e\	.
.	.	.	4b\
.	.	[2f\	[2a/
=267	=267	=267	=267
0r	1A	2f\]	2a/]
.	.	4e\	4g/
.	.	4d\	4f/
.	1A	1c	2e/
.	.	.	[2f/
=268	=268	=268	=268
0r	0A	1F	2f/]
.	.	.	4e/
.	.	.	4d/
.	.	2r	2f/
.	.	[2c\	[2e/
=269	=269	=269	=269
0E	0r	2c\]	2e/]
.	.	4B\	1d
.	.	4A/	.
.	.	1G	.
.	.	.	2c/
=270	=270	=270	=270
0D	0r	1A	2d/
.	.	.	2.f/
.	.	2r	.
.	.	.	4g/
.	.	[2F/	[2a/
=271	=271	=271	=271
0r	0A	4F/]	2a/]
.	.	4E/	.
.	.	2C/	1g
.	.	1D	.
.	.	.	2f#i/
=272	=272	=272	=272
0r	0G	1d	1.g
.	.	2B\	.
.	.	[2d\	4f/
.	.	.	4e/
=273	=273	=273	=273
0D	0r	2d\]	1f
.	.	4c\	.
.	.	4B\	.
.	.	2A/	1f
.	.	[2B\	.
=274	=274	=274	=274
0E	0G	2B\]	1g
.	.	2c\	.
.	.	2B\	4g/
.	.	.	4f/
.	.	[2e\	4e/
.	.	.	4d/
=275	=275	=275	=275
0F	0A	2e\]	1c
.	.	4d\	.
.	.	4c\	.
.	.	4d\	2r
.	.	4c\	.
.	.	4B\	2d/
.	.	4A/	.
=276	=276	=276	=276
0E	0B	0G	2.e/
.	.	.	4f/
.	.	.	1g
=277	=277	=277	=277
0F	0A	1c	2a/
.	.	.	2.cc\
.	.	1d	.
.	.	.	4b\
.	.	.	[2a/
=278	=278	=278	=278
0E	0B	[0e	2a/]
.	.	.	4g#i/
.	.	.	4f#i/
.	.	.	1g#i
=279	=279	=279	=279
0r	0A	0e]	0a
=280	=280	=280	=280
0E	0r	2r	1r
.	.	2E/	.
.	.	2.G/	2r
.	.	.	2e/
.	.	4A/	.
=281	=281	=281	=281
0E	0r	2B\	2.g/
.	.	2c\	.
.	.	.	4a/
.	.	2d\	2b\
.	.	[2e\	2cc\
=282	=282	=282	=282
1E	0r	2e\]	2b\
.	.	4d\	2.g/
.	.	4c\	.
1E	.	2B\	.
.	.	.	4f/
.	.	[2c\	[2e/
=283	=283	=283	=283
0E	0r	2c\]	2e/]
.	.	4B\	4d/
.	.	4A/	4c/
.	.	1G#i	1B
=284	=284	=284	=284
0r	0A	1A	2r
.	.	.	2A/
.	.	2r	2.c/
.	.	2A/	.
.	.	.	4d/
=285	=285	=285	=285
0r	0A	2.c\	2e/
.	.	.	2f/
.	.	4d\	.
.	.	2e\	2g/
.	.	[2f\	[2a/
=286	=286	=286	=286
0r	1A	2f\]	2a/]
.	.	4e\	4g/
.	.	4d\	4f/
.	1A	2.c\	1e
.	.	4d\	.
=287	=287	=287	=287
0r	0A	2f\	2r
.	.	1e	1cc
.	.	4d\	4b\
.	.	4c\	4a/
=288	=288	=288	=288
0E	0r	1B	0g
.	.	1c	.
=289	=289	=289	=289
0D	0A	2.d\	2r
.	.	.	2.dd\
.	.	4c\	.
.	.	2d\	.
.	.	.	4cc\
.	.	2f\	2dd\
=290	=290	=290	=290
1E	0G	1.e	2b\
.	.	.	2.cc\
2C/	.	.	.
.	.	.	4b\
2E\	.	2c\	4a/
.	.	.	4g/
=291	=291	=291	=291
2D\	0A	2d\	2f/
2C/	.	2e\	1g
1D	.	1d	.
.	.	.	2f#i/
=292	=292	=292	=292
1.C	0c	0e	1g
.	.	.	2r
[2E\	.	.	[2g/
=293	=293	=293	=293
2E\]	0B	1e	2g/]
2F\	.	.	2a/
1G	.	1d	1b
=294	=294	=294	=294
1A	0A	1c	1cc
1D	.	1d	2a/
.	.	.	[2b\
=295	=295	=295	=295
0E	1G	0B	4b\]
.	.	.	4a/
.	.	.	4g#i/
.	.	.	4f#i/
.	1E	.	1g#i
=296	=296	=296	=296
[0AAl	0F	[0Al	[0al
=297	=297	=297	=297
0AA]	0El	0A]	0a]
==	==	==	==
*-	*-	*-	*-
!!!RDF**kern: l=long note in original notation
!!!RDF**kern: i=editorial accidental
!!!RDF**kern: V=start of tuplet marker
!!!RDF**kern: Z=end of tuplet marker
!!!ENC:	Joel Chapman 2012/1/19
!!!END:	2012/01/19/
!!!EED:	Jesse Rodin
!!!EEV:	2012/02/02/
!!attribution-level@Jos: 5 (doubtful)
!!!ONB:	Translated from MusicXML and edited on 2012/02/02/ by Craig Sapp
!!muse2ps: C^La Rue?/Josquin?\n@{SCT}^i2I150v95,95,95,150c120Q16
